X:305
T:Astley's Ride
O:england
M:4/4
L:1/8
K:D
af|d2d2d2cd|e2e2e2fe|dcBA B2c2|
defg agfe|d2d2d2cd|e2e2e2fe|dcBA B2c2|
d4d2:|
|:A2|f2f2f2ef|g2g2g2bg|e2e2e2de|
f2f2fgaf|d2d2d2cd|e2e2e2fe|dcBA B2c2|
d4d2:|


